local/share/icons/dracula-icons-main/scalable/mimetypes/message-partial.svg

<?xml version="1.0" encoding="UTF-8"?>
<svg xmlns="http://www.w3.org/2000/svg" xmlns:xlink="http://www.w3.org/1999/xlink" width="64" height="64" viewBox="0 0 64 64">
<defs>
<filter id="filter-remove-color" x="0%" y="0%" width="100%" height="100%">
<feColorMatrix color-interpolation-filters="sRGB" values="0 0 0 0 1 0 0 0 0 1 0 0 0 0 1 0 0 0 1 0" />
</filter>
<mask id="mask-0">
<g filter="url(#filter-remove-color)">
<rect x="-6.4" y="-6.4" width="76.8" height="76.8" fill="rgb(0%, 0%, 0%)" fill-opacity="0.15"/>
</g>
</mask>
<linearGradient id="linear-pattern-0" gradientUnits="userSpaceOnUse" x1="49.570999" y1="52.714001" x2="51.714001" y2="54.856998" gradientTransform="matrix(2.3333, 0, 0, 2.3333, -68.667, -72.000999)">
<stop offset="0" stop-color="rgb(0%, 0%, 0%)" stop-opacity="1"/>
<stop offset="1" stop-color="rgb(0%, 0%, 0%)" stop-opacity="0"/>
</linearGradient>
<clipPath id="clip-0">
<rect x="0" y="0" width="64" height="64"/>
</clipPath>
<g id="source-5246" clip-path="url(#clip-0)">
<path fill-rule="evenodd" fill="url(#linear-pattern-0)" d="M 56 46 L 42 60 L 51 60 C 53.769531 60 56 57.769531 56 55 Z M 56 46 "/>
</g>
<mask id="mask-1">
<g filter="url(#filter-remove-color)">
<rect x="-6.4" y="-6.4" width="76.8" height="76.8" fill="rgb(0%, 0%, 0%)" fill-opacity="0.5"/>
</g>
</mask>
<clipPath id="clip-1">
<rect x="0" y="0" width="64" height="64"/>
</clipPath>
<g id="source-5250" clip-path="url(#clip-1)">
<path fill-rule="nonzero" fill="rgb(100%, 100%, 100%)" fill-opacity="1" d="M 32 17.300781 L 18.636719 27.324219 C 18.609375 27.34375 18.582031 27.367188 18.554688 27.386719 L 18.539062 27.398438 L 18.539062 27.402344 C 18.214844 27.65625 18 28.050781 18 28.5 L 18 39.730469 L 18.003906 39.730469 L 19.449219 37.867188 L 20.386719 40.207031 L 22.207031 38.882812 L 23.5625 42.609375 L 25.402344 39.730469 L 27.285156 41.769531 L 28.328125 39.1875 L 29.472656 40.566406 L 31.050781 38.917969 L 32.65625 42.699219 L 33.097656 42.699219 L 34.617188 37.214844 L 35.785156 40.855469 L 37.121094 38.796875 L 38.84375 42.699219 L 39.351562 42.699219 L 40.203125 39.730469 L 41.683594 40.664062 L 43.113281 39.296875 L 44.59375 40.542969 L 46 39.792969 L 46 28.5 C 46 28.042969 45.777344 27.640625 45.441406 27.386719 L 45.445312 27.378906 Z M 32 23.699219 C 34.761719 23.699219 37 25.9375 37 28.699219 L 37 30.199219 C 37 31.03125 36.332031 31.699219 35.5 31.699219 C 34.886719 31.699219 34.363281 31.332031 34.132812 30.808594 C 33.566406 31.378906 32.800781 31.699219 32 31.699219 C 30.34375 31.699219 29 30.355469 29 28.699219 C 29 27.042969 30.34375 25.699219 32 25.699219 C 33.65625 25.699219 35 27.042969 35 28.699219 L 35 30.199219 C 35 30.476562 35.222656 30.699219 35.5 30.699219 C 35.777344 30.699219 36 30.476562 36 30.199219 L 36 28.699219 C 36 26.492188 34.210938 24.699219 32 24.699219 C 29.789062 24.699219 28 26.492188 28 28.699219 C 28 30.910156 29.789062 32.699219 32 32.699219 L 35.5 32.699219 C 35.777344 32.699219 36 32.921875 36 33.199219 C 36 33.476562 35.777344 33.699219 35.5 33.699219 L 32 33.699219 C 29.238281 33.699219 27 31.460938 27 28.699219 C 27 25.9375 29.238281 23.699219 32 23.699219 Z M 32 26.699219 C 30.894531 26.699219 30 27.59375 30 28.699219 C 30 29.804688 30.894531 30.699219 32 30.699219 C 33.105469 30.699219 34 29.804688 34 28.699219 C 34 27.59375 33.105469 26.699219 32 26.699219 Z M 32 26.699219 "/>
</g>
</defs>
<path fill-rule="nonzero" fill="rgb(96.470588%, 18.039216%, 38.039216%)" fill-opacity="1" d="M 13 4 L 51 4 C 53.761719 4 56 6.238281 56 9 L 56 55 C 56 57.761719 53.761719 60 51 60 L 13 60 C 10.238281 60 8 57.761719 8 55 L 8 9 C 8 6.238281 10.238281 4 13 4 Z M 13 4 "/>
<g mask="url(#mask-0)">
<use xlink:href="#source-5246"/>
</g>
<g mask="url(#mask-1)">
<use xlink:href="#source-5250"/>
</g>
<path fill-rule="nonzero" fill="rgb(100%, 100%, 100%)" fill-opacity="1" d="M 22.5 20.699219 C 21.667969 20.699219 21 21.367188 21 22.199219 L 21 37.199219 C 21 38.03125 21.667969 38.699219 22.5 38.699219 L 34.203125 38.699219 L 34.617188 37.210938 L 35.09375 38.699219 L 41.5 38.699219 C 42.332031 38.699219 43 38.03125 43 37.199219 L 43 22.199219 C 43 21.367188 42.332031 20.699219 41.5 20.699219 Z M 32 23.699219 C 34.761719 23.699219 37 25.9375 37 28.699219 L 37 30.199219 C 37 31.03125 36.332031 31.699219 35.5 31.699219 C 34.886719 31.699219 34.363281 31.332031 34.132812 30.808594 C 33.566406 31.378906 32.800781 31.699219 32 31.699219 C 30.34375 31.699219 29 30.355469 29 28.699219 C 29 27.042969 30.34375 25.699219 32 25.699219 C 33.65625 25.699219 35 27.042969 35 28.699219 L 35 30.199219 C 35 30.476562 35.222656 30.699219 35.5 30.699219 C 35.777344 30.699219 36 30.476562 36 30.199219 L 36 28.699219 C 36 26.488281 34.210938 24.699219 32 24.699219 C 29.789062 24.699219 28 26.488281 28 28.699219 C 28 30.90625 29.789062 32.699219 32 32.699219 L 35.5 32.699219 C 35.777344 32.699219 36 32.921875 36 33.199219 C 36 33.476562 35.777344 33.699219 35.5 33.699219 L 32 33.699219 C 29.238281 33.699219 27 31.460938 27 28.699219 C 27 25.9375 29.238281 23.699219 32 23.699219 Z M 32 26.699219 C 30.894531 26.699219 30 27.59375 30 28.699219 C 30 29.804688 30.894531 30.699219 32 30.699219 C 33.105469 30.699219 34 29.804688 34 28.699219 C 34 27.59375 33.105469 26.699219 32 26.699219 Z M 32 26.699219 "/>
<path fill-rule="nonzero" fill="rgb(98.823529%, 83.137255%, 88.235294%)" fill-opacity="1" d="M 18 28.5 L 18 39.730469 L 18.003906 39.730469 L 19.449219 37.867188 L 20.382812 40.207031 L 22.203125 38.882812 L 23.5625 42.609375 L 25.402344 39.730469 L 27.28125 41.769531 L 28.328125 39.1875 L 29.472656 40.566406 L 31.050781 38.917969 L 32.921875 43.324219 L 33.996094 39.445312 Z M 35.710938 40.613281 L 35.785156 40.855469 L 35.871094 40.726562 Z M 38.886719 42.789062 L 39.152344 43.394531 L 39.253906 43.039062 Z M 38.886719 42.789062 "/>
<path fill-rule="nonzero" fill="rgb(99.215686%, 93.72549%, 93.72549%)" fill-opacity="1" d="M 46 28.5 L 29.070312 40.082031 L 29.472656 40.5625 L 31.050781 38.917969 L 32.921875 43.324219 L 34.617188 37.214844 L 35.785156 40.855469 L 37.121094 38.796875 L 39.152344 43.398438 L 40.199219 39.730469 L 41.679688 40.664062 L 43.113281 39.296875 L 44.59375 40.542969 L 46 39.792969 Z M 27.542969 41.128906 L 27.023438 41.484375 L 27.285156 41.769531 Z M 27.542969 41.128906 "/>
</svg>

<svg width="64" height="64" version="1.1" viewBox="0 0 64 64" xmlns="http://www.w3.org/2000/svg">
 <defs>
  <linearGradient id="a" x1="49.571" x2="51.714" y1="52.714" y2="54.857" gradientTransform="matrix(2.3333,0,0,2.3333,-68.667,-72.001)" gradientUnits="userSpaceOnUse">
   <stop offset="0"/>
   <stop stop-opacity="0" offset="1"/>
  </linearGradient>
 </defs>
 <g transform="scale(1)">
  <rect x="8" y="4" width="48" height="56" ry="5" fill="#f62e61" style="paint-order:stroke fill markers"/>
  <path d="m56 46-14 14h9c2.77 0 5-2.23 5-5z" fill="url(#a)" fill-rule="evenodd" opacity=".15" stroke-width="8.8191" style="paint-order:stroke fill markers"/>
 </g>
 <g transform="translate(-52.837,-2.8601)">
  <path transform="translate(52.837,2.8601)" d="m32 17.301-13.363 10.025c-0.02875 0.0187-0.054801 0.0418-0.082031 0.0625l-0.015626 0.011719v0.001953c-0.3259 0.2559-0.53906 0.64927-0.53906 1.0977v11.229h0.003906l1.4453-1.8633 0.93555 2.3418 1.8203-1.3262 1.3574 3.7285 1.8398-2.8809 1.8809 2.041 1.0449-2.584 1.1445 1.3789 1.5781-1.6484 1.6055 3.7832h0.43945l1.5215-5.4863 1.168 3.6426 1.3359-2.0605 1.7227 3.9043h0.50781l0.84961-2.9707 1.4805 0.93555 1.4316-1.3672 1.4805 1.2461 1.4062-0.75v-11.293c0-0.45851-0.22189-0.86019-0.56055-1.1152l0.005859-0.007813-13.445-10.076zm0 6.3984a5 5 0 0 1 5 5v1.5c0 0.831-0.669 1.5-1.5 1.5-0.61296 0-1.1359-0.36612-1.3691-0.89062a3 3 0 0 1-2.1309 0.89062 3 3 0 0 1-3-3 3 3 0 0 1 3-3 3 3 0 0 1 3 3v1.5c0 0.277 0.223 0.5 0.5 0.5s0.5-0.223 0.5-0.5v-1.5a4 4 0 0 0-4-4 4 4 0 0 0-4 4 4 4 0 0 0 4 4h3.5c0.277 0 0.5 0.223 0.5 0.5s-0.223 0.5-0.5 0.5h-3.5a5 5 0 0 1-5-5 5 5 0 0 1 5-5zm0 3a2 2 0 0 0-2 2 2 2 0 0 0 2 2 2 2 0 0 0 2-2 2 2 0 0 0-2-2z" enable-background="new" fill="#fff" opacity=".5"/>
  <path transform="translate(52.837,2.8601)" d="m22.5 20.699c-0.831 0-1.5 0.66967-1.5 1.5v15.002c0 0.83033 0.669 1.498 1.5 1.498h11.705l0.41211-1.4863 0.47656 1.4863h6.4062c0.831 0 1.5-0.66777 1.5-1.498v-15.002c0-0.83033-0.669-1.5-1.5-1.5h-19zm9.5 3a5 5 0 0 1 5 5v1.5c0 0.831-0.669 1.5-1.5 1.5-0.61296 0-1.1359-0.36612-1.3691-0.89062a3 3 0 0 1-2.1309 0.89062 3 3 0 0 1-3-3 3 3 0 0 1 3-3 3 3 0 0 1 3 3v1.5c0 0.277 0.223 0.5 0.5 0.5s0.5-0.223 0.5-0.5v-1.5a4 4 0 0 0-4-4 4 4 0 0 0-4 4 4 4 0 0 0 4 4h3.5c0.277 0 0.5 0.223 0.5 0.5s-0.223 0.5-0.5 0.5h-3.5a5 5 0 0 1-5-5 5 5 0 0 1 5-5zm0 3a2 2 0 0 0-2 2 2 2 0 0 0 2 2 2 2 0 0 0 2-2 2 2 0 0 0-2-2z" enable-background="new" fill="#fff"/>
  <path transform="translate(52.837,2.8601)" d="m18 28.5v11.229h0.003906l1.4453-1.8633 0.93555 2.3418 1.8203-1.3262 1.3574 3.7285 1.8398-2.8809 1.8809 2.041 1.0449-2.584 1.1445 1.3789 1.5781-1.6484 1.8711 4.4082 1.0762-3.8789-15.998-10.945zm17.709 12.115 0.076172 0.24024 0.083985-0.12891-0.16016-0.11133zm3.1758 2.1738 0.26758 0.60742 0.10156-0.35547-0.36914-0.25195z" enable-background="new" fill="#fcd4e1"/>
  <path transform="translate(52.837,2.8601)" d="m46 28.5-16.928 11.582 0.40039 0.48242 1.5781-1.6484 1.8711 4.4082 1.6953-6.1113 1.168 3.6426 1.3359-2.0605 2.0312 4.6016 1.0488-3.668 1.4805 0.93555 1.4316-1.3672 1.4805 1.2461 1.4062-0.75v-11.293zm-18.457 12.629-0.52148 0.35547 0.26172 0.28516 0.25977-0.64062z" enable-background="new" fill="#fdefef"/>
 </g>
</svg>
